assets/features/payment-flow/VietinBank.svg

<svg width="200" height="200" viewBox="0 0 200 200" fill="none" xmlns="http://www.w3.org/2000/svg">
<rect x="0.5" y="0.5" width="199" height="199" rx="39.5" fill="white"/>
<rect x="0.5" y="0.5" width="199" height="199" rx="39.5" stroke="#8D8D8D"/>
<path d="M100.033 82.4658C96.0059 82.4658 91.8733 82.4658 87.8466 82.4658C81.4887 82.4658 82.5484 81.83 82.5484 87.6581C82.5484 95.2875 82.5484 102.917 82.5484 110.546C82.5484 112.666 82.1246 113.831 79.7933 114.149C68.879 115.527 58.6004 119.342 48.8516 124.11C45.8846 125.593 45.2488 124.64 44.1892 121.885C38.785 107.791 38.5731 93.5921 43.7653 79.4988C50.0173 62.6503 61.6734 50.8882 78.2039 44.1065C101.728 34.5697 130.55 42.0932 146.339 62.0146C160.75 80.1346 163.399 100.162 155.982 121.779C154.922 124.852 153.757 125.276 150.896 123.898C141.147 119.236 131.08 115.421 120.272 114.043C117.941 113.725 117.623 112.454 117.623 110.441C117.729 102.175 117.623 93.91 117.729 85.6447C117.729 83.2075 117.093 82.2538 114.55 82.3598C109.675 82.5717 104.907 82.3598 100.033 82.3598V82.4658Z" fill="#005992"/>
<path d="M99.7147 160.032C79.6874 159.29 63.5808 151.131 51.3949 135.13C50.2293 133.54 49.9113 132.693 52.1366 131.633C72.3758 121.566 93.5688 118.282 115.821 121.566C126.842 123.156 137.332 126.335 147.293 131.315C149.73 132.587 150.048 133.435 148.353 135.766C135.955 151.554 119.742 159.502 99.7147 160.138V160.032Z" fill="#D61549"/>
</svg>

<svg xmlns="http://www.w3.org/2000/svg" width="200" height="200" fill="none" viewBox="0 0 200 200"><rect width="199" height="199" x=".5" y=".5" fill="#fff" rx="39.5"/><rect width="199" height="199" x=".5" y=".5" stroke="#8d8d8d" rx="39.5"/><path fill="#005992" d="M100.033 82.466H87.847c-6.358 0-5.299-.636-5.299 5.192v22.888c0 2.12-.423 3.285-2.755 3.603-10.914 1.378-21.193 5.193-30.941 9.961-2.967 1.483-3.603.53-4.663-2.225-5.404-14.094-5.616-28.293-.424-42.386 6.252-16.849 17.908-28.61 34.439-35.392 23.524-9.537 52.346-2.014 68.135 17.908 14.411 18.12 17.06 38.147 9.643 59.764-1.06 3.073-2.225 3.497-5.086 2.119-9.749-4.662-19.816-8.477-30.624-9.855-2.331-.318-2.649-1.589-2.649-3.602.106-8.266 0-16.531.106-24.796 0-2.437-.636-3.391-3.179-3.285-4.875.212-9.643 0-14.517 0z"/><path fill="#d61549" d="M99.715 160.032c-20.028-.742-36.134-8.901-48.32-24.902-1.166-1.59-1.484-2.437.742-3.497 20.239-10.067 41.432-13.351 63.684-10.067 11.021 1.59 21.511 4.769 31.472 9.749 2.437 1.272 2.755 2.12 1.06 4.451-12.398 15.788-28.611 23.736-48.638 24.372z"/></svg>
